!!!COM: Palestrina, Giovanni Perluigi da
!!!OPR: Missa Salve regina
!!!OMD: Credo
!!!OTL: Et iterum
**kern	**kern	**kern	**kern
*Ibass	*Itenor	*Icalto	*Icalto
!Bassus	!Tenor	!Altus 2	!Altus 1
*clefF4	*clefGv2	*clefG2	*clefG2
*k[b-]	*k[b-]	*k[b-]	*k[b-]
*G:dor	*G:dor	*G:dor	*G:dor
*M4/2	*M4/2	*M4/2	*M4/2
=124	=124	=124	=124
0D	0d	0f#	0a
=125	=125	=125	=125
1.G	1.d	1.g	1.b-
2F#	2d	2a	2a
=126	=126	=126	=126
2G	2d	2b-	2.g
2G	2d	2b-	.
.	.	.	4f
2A	2c#	2a	2e
2B-	2d	2g	2d
=127	=127	=127	=127
0A	4e	[0a	2c#
.	8d	.	.
.	8e	.	.
.	2f	.	1d
.	1e	.	.
.	.	.	2c#
=128	=128	=128	=128
1r	1f	1a]	1d
1D	1d	1a	1f#
=129	=129	=129	=129
1.G	1.d	1.b-	1.g
2F#	2d	2a	2a
=130	=130	=130	=130
2G	1d	2.g	1b-
2G	.	.	.
.	.	4f	.
2A	2c#	2e	2a
2B-	2d	2d	2g
=131	=131	=131	=131
0A	4e	2c#	1a
.	8d	.	.
.	8e	.	.
.	2f	1d	.
.	1e	.	2a
.	.	2c#	2a
=132	=132	=132	=132
2r	2r	1d	4a
.	.	.	4g
2B-	2d	.	4f
.	.	.	4e
4B-	4d	2r	1d
4A	4c	.	.
4G	4B-	2g	.
4F	4A	.	.
=133	=133	=133	=133
1.E-	1.G	4g	2r
.	.	4f	.
.	.	4e-	2g
.	.	4d	.
.	.	4c	2g
.	.	4B-	.
2D	2B-	[2B-	2f
=134	=134	=134	=134
2C	2c	2B-]	2e-
2C	2c	2A	2e-
1BB-	2F	2B-	1d
.	2B-	2d	.
=135	=135	=135	=135
2r	2B-	1c	1r
2F	2A	.	.
2G	1B-	1B-	2r
[2B-	.	.	2f
=136	=136	=136	=136
4B-]	0r	0r	2g
4A	.	.	.
4G	.	.	2.b-
4F	.	.	.
2.G	.	.	.
.	.	.	4a
.	.	.	4g
4A	.	.	4f
=137	=137	=137	=137
4B-	1r	0r	2g
4c	.	.	.
1d	.	.	2f
.	1A	.	1e
2c#	.	.	.
=138	=138	=138	=138
1d	2B-	2r	2d
.	2.d	2f	2d
1r	.	2a	2f
.	4c	.	.
.	4B-	[2b-	[2g
.	4A	.	.
=139	=139	=139	=139
0r	0G	4b-]	4g]
.	.	4a	4f
.	.	4g	4e
.	.	4f	4d
.	.	2g	2e
.	.	2f	[2d
=140	=140	=140	=140
1r	1A	1e	2d]
.	.	.	2c#
2r	1f	2d	1d
[2B-	.	[2d	.
=141	=141	=141	=141
2B-]	2d	2d]	0r
2G	2e	2B-	.
2A	2.f	2c	.
[2B-	.	2d	.
.	4e	.	.
=142	=142	=142	=142
4B-]	4d	1G	2r
4A	4c	.	.
4G	4B-	.	1b-
4F	4A	.	.
2.E-	4G	2r	.
.	4A	.	.
.	2B-	[2e-	2g
4D	.	.	.
=143	=143	=143	=143
2C	2c	2e-]	2a
2BB-	2F	1d	1b-
1E-	1G	.	.
.	.	2c	4a
.	.	.	4g
=144	=144	=144	=144
0D	2A	0d	2f#
.	2B-	.	1g
.	1A	.	.
.	.	.	2f#
=145	=145	=145	=145
2r	2G	1d	0g
2G	2B-	.	.
2B-	2d	1r	.
[2c	[2e-	.	.
=146	=146	=146	=146
4c]	4e-]	0r	0r
4B-	4d	.	.
4A	4c	.	.
4G	4B-	.	.
2A	2c	.	.
[2G	2B-	.	.
=147	=147	=147	=147
2G]	1A	1r	1r
2F#	.	.	.
1G	1G	2r	2r
.	.	2d	2g
=148	=148	=148	=148
2r	0r	2f	2a
2G	.	2.g	2.b-
2B-	.	.	.
.	.	4f	4a
[2c	.	4e	4g
.	.	4d	4f
=149	=149	=149	=149
4c]	0r	2e	2g
8B-	.	.	.
8c	.	.	.
2d	.	1d	2f
1A	.	.	1e
.	.	2c#	.
=150	=150	=150	=150
2r	1f	2d	1d
1B-	.	1d	.
.	2d	.	1r
2G	2e	2B-	.
=151	=151	=151	=151
2A	2.f	2c	1r
2.B-	.	2d	.
.	4e	.	.
.	4d	1G	2r
4A	4c	.	.
4G	4B-	.	[2b-
4F	4A	.	.
=152	=152	=152	=152
2.E-	4G	2r	2b-]
.	4A	.	.
.	2B-	1e-	2g
4D	.	.	.
2C	2c	.	2a
2BB-	2F	[2d	[2b-
=153	=153	=153	=153
1E-	1G	2d]	2b-]
.	.	2c	4a
.	.	.	4g
2D	1A	[1d	4f
.	.	.	4g
2D	.	.	[2a
=154	=154	=154	=154
2.BB-	1B-	0d]	4a]
.	.	.	4g
.	.	.	1g
4C	.	.	.
1D	1A	.	.
.	.	.	2f#
=155	=155	=155	=155
0G	0B	0d	0g
*-	*-	*-	*-
!!!CDT: 1525/^1526/-1594/2/2
!!!OCY: Italia
!!!AGN: Mass (Paraphrase)
!!!AST: renaissance, vocal
!!!ASW: Antiphon
!!!PWK: Masses, Book 11
!!!RNB: Cadence finals: D
!!!YOR: Le Opere Complete, v. 28, p. 185
!!!YOO: Rome, Italy: Fratelli Scalera
!!!END: 1992//
!!!EED: John Miller
!!!YEC: Copyright 2000, John Miller
!!!YEN: United States of America
!!!YEM: Rights to all derivative electronic formats reserved.
!!!YEM: Refer to licensing agreement for further details.
!!!YEM: This file must be accompanied by the licensing agreement.
!!!YEM: A copy of the licensing agreement may be found at http://www.music-cog.ohio-state.edu/HumdrumDatabases/Palestrina/license.txt
!!!EMD: converted to Humdrum by Bret Aarden
